src/svg/28/check_shield_device_outline_28.svg

<svg height="28" viewBox="0 0 28 28" width="28" xmlns="http://www.w3.org/2000/svg"><g fill="none" fill-rule="evenodd"><path d="m0 0h28v28h-28z"/><path d="m18.1077993 8.07560194.2179209.01869955c.2066682.0262743.375342.06598629.7627587.17667679l5.7510749 1.64316425c.6868825.19625217 1.1604462.82406977 1.1604462 1.53843827v6.0474192c0 3.4805888-2.6114782 6.2786011-7.6060807 8.419145l-.3939193.1688226-.3939193-.1688226c-4.9946025-2.1405439-7.6060807-4.9385562-7.6060807-8.419145v-6.0474192c0-.7143685.4735637-1.3421861 1.1604462-1.53843827l5.9044667-1.68642517c.2829928-.07850162.4322228-.11089504.6093669-.13341587.2206301-.02804932.4308103-.02804932.6514404 0zm-5.2355697-6.07560194c1.776598 0 2.6475757.16819357 3.5530607.65245221.8041864.43008361 1.4459025 1.06172492 1.8871198 1.85772529.267747.48304246.0932155 1.09167753-.389827 1.35942449-.4485394.24862218-1.0053704.11589203-1.2970024-.29108873l-.0624221-.09873824c-.2544283-.45901426-.616149-.81505604-1.0810661-1.06369641-.5083515-.27186938-1.0034139-.3879059-2.1255406-.4114458l-.483812-.00463281-3.00553639.0014712c-1.28952499.01507234-1.8035325.12272986-2.34929606.41460741-.47758338.25541438-.84641446.62424546-1.10182884 1.10182884-.27186938.50835153-.3879059 1.003414-.41144572 2.12580322l-.00463289.48393162.0014712 12.00515421c.01507234 1.289525.12272986 1.8035325.41460741 2.349296.25541438.4775834.62424546.8464145 1.10182884 1.1018289.50835153.2718694 1.003414.3879059 2.12589123.4114457l.48397172.0046329h.369175c.5522848 0 1 .4477153 1 1 0 .5128358-.3860402.9355072-.8833789.9932723l-.1166211.0067277h-.369175c-1.77659796 0-2.64757573-.1681936-3.55306067-.6524522-.82612032-.441814-1.48044354-1.0961372-1.92225752-1.9222575-.43137883-.8066083-.6096529-1.5794601-.64559024-2.9898919l-.00532246-.2907863-.00153951-12.0168417c0-1.77659796.16819357-2.64757573.65245221-3.55306067.44181398-.82612032 1.0961372-1.48044354 1.92225752-1.92225752.80660828-.43137883 1.57946011-.6096529 2.98957691-.64559014l.29071905-.00532244zm5.1277704 8.0732645-.0734848.0050676c-.0584267.0074279-.1192541.019941-.257571.0574357l-5.6689442 1.6182322v5.746c0 2.3794439 1.8331774 4.4757539 5.6919023 6.2677783l.3080977.1402217.3080977-.1402217c3.745233-1.7393178 5.5823161-3.7652852 5.68714-6.0585627l.0047623-.2092156v-5.746l-5.7134429-1.6301383c-.0833731-.0219734-.1343454-.0332695-.1771275-.0403035l-.0359448-.0052261c-.0531471-.0067568-.0938225-.0067568-.1469696 0zm3.5363961 4.1903394c.3221825.3221825.3490311.8278621.0805456 1.1806275l-.0805456.0921647-4 4c-.3221825.3221825-.8278621.3490311-1.1806275.0805456l-.0921647-.0805456-1.6-1.6c-.3514719-.3514719-.3514719-.9213203 0-1.2727922.3221825-.3221825.8278621-.3490311 1.1806275-.0805456l.0921647.0805456.9636039.9633961 3.3636039-3.3633961c.3514719-.3514719.9213203-.3514719 1.2727922 0z" fill="currentColor" fill-rule="nonzero"/></g></svg>

<?xml version="1.0" encoding="UTF-8"?>
<svg width="28px" height="28px" viewBox="0 0 28 28" version="1.1" xmlns="http://www.w3.org/2000/svg" xmlns:xlink="http://www.w3.org/1999/xlink">
    <!-- Generator: Sketch 63.1 (92452) - https://sketch.com -->
    <title>check_shield_device_outline_28</title>
    <desc>Created with Sketch.</desc>
    <g id="Page-1" stroke="none" stroke-width="1" fill="none" fill-rule="evenodd">
        <g id="check_shield_device_outline_28">
            <rect x="0" y="0" width="28" height="28"></rect>
            <path d="M18.1077993,8.07560194 L18.3257202,8.09430149 C18.5323884,8.12057579 18.7010622,8.16028778 19.0884789,8.27097828 L19.0884789,8.27097828 L24.8395538,9.91414253 C25.5264363,10.1103947 26,10.7382123 26,11.4525808 L26,11.4525808 L26,17.5 C26,20.9805888 23.3885218,23.7786011 18.3939193,25.919145 L18.3939193,25.919145 L18,26.0879676 L17.6060807,25.919145 C12.6114782,23.7786011 10,20.9805888 10,17.5 L10,17.5 L10,11.4525808 C10,10.7382123 10.4735637,10.1103947 11.1604462,9.91414253 L11.1604462,9.91414253 L17.0649129,8.22771736 C17.3479057,8.14921574 17.4971357,8.11682232 17.6742798,8.09430149 C17.8949099,8.06625217 18.1050901,8.06625217 18.3257202,8.09430149 Z M12.8722296,2 C14.6488276,2 15.5198053,2.16819357 16.4252903,2.65245221 C17.2294767,3.08253582 17.8711928,3.71417713 18.3124101,4.5101775 C18.5801571,4.99321996 18.4056256,5.60185503 17.9225831,5.86960199 C17.4740437,6.11822417 16.9172127,5.98549402 16.6255807,5.57851326 L16.5631586,5.47977502 C16.3087303,5.02076076 15.9470096,4.66471898 15.4820925,4.41607861 C14.973741,4.14420923 14.4786786,4.02817271 13.3565519,4.00463281 L12.8727399,4 L9.86720351,4.0014712 C8.57767852,4.01654354 8.06367101,4.12420106 7.51790745,4.41607861 C7.04032407,4.67149299 6.67149299,5.04032407 6.41607861,5.51790745 C6.14420923,6.02625898 6.02817271,6.52132145 6.00463289,7.64371067 L6,8.12764229 L6.0014712,20.1327965 C6.01654354,21.4223215 6.12420106,21.936329 6.41607861,22.4820925 C6.67149299,22.9596759 7.04032407,23.328507 7.51790745,23.5839214 C8.02625898,23.8557908 8.52132145,23.9718273 9.64379868,23.9953671 L10.1277704,24 L10.4969454,24 C11.0492302,24 11.4969454,24.4477153 11.4969454,25 C11.4969454,25.5128358 11.1109052,25.9355072 10.6135665,25.9932723 L10.4969454,26 L10.1277704,26 C8.35117244,26 7.48019467,25.8318064 6.57470973,25.3475478 C5.74858941,24.9057338 5.09426619,24.2514106 4.65245221,23.4252903 C4.22107338,22.618682 4.04279931,21.8458302 4.00686197,20.4353984 L4.00153951,20.1446121 L4,8.1277704 C4,6.35117244 4.16819357,5.48019467 4.65245221,4.57470973 C5.09426619,3.74858941 5.74858941,3.09426619 6.57470973,2.65245221 C7.38131801,2.22107338 8.15416984,2.04279931 9.56428664,2.00686207 L9.85500569,2.00153963 L12.8722296,2 Z M18,10.0732645 L17.9265152,10.0783321 C17.8680885,10.08576 17.8072611,10.0982731 17.6689442,10.1357678 L17.6689442,10.1357678 L12,11.754 L12,17.5 C12,19.8794439 13.8331774,21.9757539 17.6919023,23.7677783 L17.6919023,23.7677783 L18,23.908 L18.3080977,23.7677783 C22.0533307,22.0284605 23.8904138,20.0024931 23.9952377,17.7092156 L23.9952377,17.7092156 L24,17.5 L24,11.754 L18.2865571,10.1238617 C18.203184,10.1018883 18.1522117,10.0905922 18.1094296,10.0835582 L18.1094296,10.0835582 L18.0734848,10.0783321 C18.0203377,10.0715753 17.9796623,10.0715753 17.9265152,10.0783321 Z M21.5363961,14.2636039 C21.8585786,14.5857864 21.8854272,15.091466 21.6169417,15.4442314 L21.5363961,15.5363961 L17.5363961,19.5363961 C17.2142136,19.8585786 16.708534,19.8854272 16.3557686,19.6169417 L16.2636039,19.5363961 L14.6636039,17.9363961 C14.312132,17.5849242 14.312132,17.0150758 14.6636039,16.6636039 C14.9857864,16.3414214 15.491466,16.3145728 15.8442314,16.5830583 L15.9363961,16.6636039 L16.9,17.627 L20.2636039,14.2636039 C20.6150758,13.912132 21.1849242,13.912132 21.5363961,14.2636039 Z" id="↳-Icon-Color" fill="currentColor" fill-rule="nonzero"></path>
        </g>
    </g>
</svg>
